X:1933
T:Bourrée tournee a deux
C:trad.
A:Morvan
O:France
M:3/8
L:1/16
Q:1/8=210
K:C
e2|geg2a2|g4e2|def2d2|e2c2e2|geg2a2|g4e2|def2d2|c4:|
|:e2|c2ecBA|G4c2|Bcd2f2|e2c2e2|c2dcBA|G4c2|Bcd2B2|c4:||
% Output from ABC2Win  Version 2.1 i on 15/03/2000


